assets/images/new-web/elite/pillar-2.svg

<svg xmlns="http://www.w3.org/2000/svg" width="43" height="33" viewBox="0 0 43 33">
    <path fill="#5D80A0" fill-rule="evenodd" d="M12.489 26C10.008 26 8 27.575 8 29.5s2.008 3.5 4.489 3.5C14.969 33 17 31.425 17 29.5S14.97 26 12.489 26zM0 0v3.333h4.3l7.74 12.65-2.903 4.084c-.344.466-.537 1.016-.537 1.6C8.6 23.5 10.535 25 12.9 25h25.8v-3.333H13.803c-.301 0-.538-.184-.538-.417l.065-.2 1.935-2.717h16.018c1.612 0 3.031-.683 3.762-1.716L42.742 5.8c.172-.233.258-.517.258-.8 0-.917-.967-1.667-2.15-1.667H9.051L7.031 0H0zm34.489 26C32.008 26 30 27.575 30 29.5s2.008 3.5 4.489 3.5C36.969 33 39 31.425 39 29.5S36.97 26 34.489 26z"/>
</svg>

<?xml version="1.0" encoding="UTF-8"?>
<svg width="43px" height="33px" viewBox="0 0 43 33" version="1.1" xmlns="http://www.w3.org/2000/svg" xmlns:xlink="http://www.w3.org/1999/xlink">
    <!-- Generator: Sketch 63.1 (92452) - https://sketch.com -->
    <title>mask</title>
    <desc>Created with Sketch.</desc>
    <g id="Page-1" stroke="none" stroke-width="1" fill="none" fill-rule="evenodd">
        <g id="Artboard" transform="translate(-132.000000, -92.000000)" fill="#FFFFFF">
            <g id="mask" transform="translate(132.000000, 92.000000)">
                <path d="M12.489,26 C10.008,26 8,27.575 8,29.5 C8,31.425 10.008,33 12.489,33 C14.969,33 17,31.425 17,29.5 C17,27.575 14.97,26 12.489,26 Z M0,0 L0,3.333 L4.3,3.333 L12.04,15.983 L9.137,20.067 C8.793,20.533 8.6,21.083 8.6,21.667 C8.6,23.5 10.535,25 12.9,25 L38.7,25 L38.7,21.667 L13.803,21.667 C13.502,21.667 13.265,21.483 13.265,21.25 L13.33,21.05 L15.265,18.333 L31.283,18.333 C32.895,18.333 34.314,17.65 35.045,16.617 L42.742,5.8 C42.914,5.567 43,5.283 43,5 C43,4.083 42.033,3.333 40.85,3.333 L9.051,3.333 L7.031,0 L0,0 Z M34.489,26 C32.008,26 30,27.575 30,29.5 C30,31.425 32.008,33 34.489,33 C36.969,33 39,31.425 39,29.5 C39,27.575 36.97,26 34.489,26 Z" id="Shape"></path>
            </g>
        </g>
    </g>
</svg>
